src/shared/assets/dialog/dialog-page-style-settings/dialogPageStyleSettings-union.svg

<svg width="93" height="43" viewBox="0 0 93 43" fill="none" xmlns="http://www.w3.org/2000/svg">
<path d="M21.5 0.5C9.90202 0.5 0.5 9.90202 0.5 21.5C0.5 26.3148 2.12244 30.7497 4.84766 34.292C5.90536 39.0978 -1.34147 42.0215 0.951172 42.0215C3.10599 42.0215 8.33782 42.1269 12.333 40.3965C15.1032 41.7429 18.213 42.5 21.5 42.5H71.5C83.098 42.5 92.5 33.098 92.5 21.5C92.5 9.90202 83.098 0.5 71.5 0.5H21.5Z" fill="white"/>
<path d="M21.5 0.5V0V0V0.5ZM4.84766 34.292L5.24395 33.9871L5.31199 34.0756L5.33597 34.1845L4.84766 34.292ZM0.951172 42.0215V41.5215V41.5215V42.0215ZM12.333 40.3965L12.1343 39.9377L12.345 39.8464L12.5516 39.9468L12.333 40.3965ZM21.5 42.5V43V43V42.5ZM71.5 42.5V43V43V42.5ZM71.5 0.5V0V0V0.5ZM21.5 0.5V1C10.1782 1 1 10.1782 1 21.5H0.5H0C0 9.62588 9.62588 2.68221e-07 21.5 0V0.5ZM0.5 21.5H1C1 26.2006 2.5835 30.529 5.24395 33.9871L4.84766 34.292L4.45136 34.5969C1.66138 30.9704 0 26.4291 0 21.5H0.5ZM4.84766 34.292L5.33597 34.1845C5.92756 36.8725 4.18274 38.981 2.78183 40.3203C2.42414 40.6623 2.07748 40.9646 1.78356 41.2202C1.48206 41.4825 1.25181 41.6824 1.09953 41.8386C1.02256 41.9176 0.987251 41.9637 0.974953 41.9835C0.950279 42.0233 1.03029 41.9239 0.987526 41.7602C0.963387 41.6677 0.910477 41.5996 0.859238 41.5578C0.814293 41.5211 0.778183 41.5103 0.776314 41.5098C0.772697 41.5086 0.783638 41.5123 0.81636 41.5157C0.847916 41.5191 0.891953 41.5215 0.951172 41.5215V42.0215V42.5215C0.791985 42.5215 0.626366 42.5101 0.481163 42.4652C0.342285 42.4223 0.096405 42.3056 0.0199585 42.0128C-0.0461197 41.7597 0.0676651 41.5491 0.125153 41.4564C0.19503 41.3438 0.290268 41.2362 0.38353 41.1405C0.571709 40.9475 0.840614 40.7151 1.12729 40.4657C1.42153 40.2098 1.75202 39.9214 2.0908 39.5975C3.47571 38.2735 4.82545 36.5173 4.35934 34.3995L4.84766 34.292ZM0.951172 42.0215V41.5215C3.13551 41.5215 8.2531 41.6187 12.1343 39.9377L12.333 40.3965L12.5317 40.8553C8.42255 42.6351 3.07647 42.5215 0.951172 42.5215V42.0215ZM12.333 40.3965L12.5516 39.9468C15.2554 41.2609 18.2905 42 21.5 42V42.5V43C18.1354 43 14.9511 42.2248 12.1144 40.8462L12.333 40.3965ZM21.5 42.5V42H71.5V42.5V43H21.5V42.5ZM71.5 42.5V42C82.8218 42 92 32.8218 92 21.5H92.5H93C93 33.3741 83.3741 43 71.5 43V42.5ZM92.5 21.5H92C92 10.1782 82.8218 1 71.5 1V0.5V0C83.3741 2.68221e-07 93 9.62588 93 21.5H92.5ZM71.5 0.5V1H21.5V0.5V0H71.5V0.5Z" fill="black" fill-opacity="0.06"/>
</svg>

<svg xmlns="http://www.w3.org/2000/svg" fill="none" viewBox="0 0 93 43"><path fill="#fff" d="M21.5.5C9.902.5.5 9.902.5 21.5a20.9 20.9 0 0 0 4.348 12.792c1.057 4.806-6.19 7.73-3.897 7.73 2.155 0 7.387.105 11.382-1.625A20.9 20.9 0 0 0 21.5 42.5h50c11.598 0 21-9.402 21-21s-9.402-21-21-21z"/><path fill="#000" fill-opacity=".06" d="M21.5.5V0zM4.848 34.292l.396-.305.068.089.024.108zM.95 42.022v-.5zm11.382-1.625-.199-.46.211-.09.207.1zM21.5 42.5v.5zm50 0v.5zm0-42V0zm-50 0V1C10.178 1 1 10.178 1 21.5H0C0 9.626 9.626 0 21.5 0zm-21 21H1c0 4.7 1.584 9.029 4.244 12.487l-.396.305-.397.305A21.4 21.4 0 0 1 0 21.5zm4.348 12.792.488-.108c.592 2.689-1.153 4.797-2.554 6.136-.358.342-.705.645-.998.9-.302.263-.532.462-.684.619a1 1 0 0 0-.125.145c-.025.04.055-.06.013-.224a.4.4 0 0 0-.129-.202.3.3 0 0 0-.083-.048l.04.006q.047.005.135.006v1a1.6 1.6 0 0 1-.47-.057c-.139-.043-.385-.16-.461-.452-.066-.253.048-.464.105-.557.07-.112.165-.22.259-.316.188-.193.457-.425.743-.674.295-.256.625-.545.964-.869 1.385-1.324 2.734-3.08 2.268-5.197zM.95 42.022v-.5c2.185 0 7.302.097 11.183-1.584l.199.459.199.458c-4.11 1.78-9.456 1.667-11.58 1.667zm11.382-1.625.219-.45A20.4 20.4 0 0 0 21.5 42v1a21.4 21.4 0 0 1-9.386-2.154zM21.5 42.5V42h50v1h-50zm50 0V42C82.822 42 92 32.822 92 21.5h1C93 33.374 83.374 43 71.5 43zm21-21H92C92 10.178 82.822 1 71.5 1V0C83.374 0 93 9.626 93 21.5zm-21-21V1h-50V0h50z"/></svg>
